packages/ui-solid/icons/heart_fill_28.svg

<svg width="28" height="28" viewBox="0 0 28 28" fill="none" xmlns="http://www.w3.org/2000/svg">
<path d="M14 5.89383C13.0387 5.03749 11.7354 4.35147 10.3046 4.10152C8.60178 3.80404 6.71875 4.12822 5.08272 5.50238C3.99247 6.41811 3.31045 7.85879 3.08445 9.4156C2.85654 10.9855 3.07847 12.7518 3.89045 14.3885C4.47789 15.5727 5.87638 17.0623 7.3296 18.4335C8.81473 19.8349 10.4683 21.2133 11.6784 22.1876C13.0238 23.2708 14.9762 23.2708 16.3216 22.1876C17.5317 21.2133 19.1853 19.8349 20.6704 18.4335C22.1236 17.0623 23.5221 15.5727 24.1095 14.3886C24.9215 12.7518 25.1435 10.9855 24.9156 9.41562C24.6896 7.8588 24.0075 6.41813 22.9173 5.50239C21.2812 4.12823 19.3982 3.80405 17.6954 4.10153C16.2646 4.35147 14.9613 5.03749 14 5.89383Z" fill="#007AFF"/>
</svg>

<svg xmlns="http://www.w3.org/2000/svg" width="28" height="28" fill="none"><path fill="currentColor" d="M14 5.894a7.63 7.63 0 0 0-3.695-1.792c-1.703-.298-3.586.026-5.222 1.4-1.09.916-1.773 2.357-1.999 3.914a8.5 8.5 0 0 0 .806 4.973c.588 1.184 1.986 2.673 3.44 4.044 1.485 1.402 3.138 2.78 4.348 3.755a3.72 3.72 0 0 0 4.644 0c1.21-.975 2.863-2.353 4.348-3.754 1.454-1.372 2.852-2.861 3.44-4.045a8.5 8.5 0 0 0 .806-4.973c-.226-1.557-.909-2.998-1.999-3.914-1.636-1.374-3.519-1.698-5.222-1.4A7.63 7.63 0 0 0 14 5.894"/></svg>
